!!!!SEGMENT: pl-kk--kk-i-1--027_anonim--alleluia-nativitas-gloriosae.krn
!!!cenid: 15xx:740
!!!COM: Anonim
!!!COM-rismid: pe30004985
!!!CDT:
!!!CNT:
!!!OTL: Alleluia, Nativitas gloriosae
!!!PDT:
!!!AGN:
!!!SMS-siglum: PL-Kk
!!!SMS-shelfmark: Kk.I.1
!!!SMS-shelfwork: 027 W
!!!SMS-variant:
!!!SMS-altvar:
!!!NIFC-rismid: 300257981
!!!URL-scan: http://repozytorium.nifc.pl/skany/pl-kk-nut--i-1
!!!ONB-nifc: UWAGA: Cantus (s. 114v-115v, skan 0117-0118), Altus (s. 109v-110v, skan 0303-0304), Tenor (s. 99v-100r, skan 0490), Bassus (s. 104r-105r, skan 0666-0667).
!!!key: G:mix
**kern	**text	**kern	**text	**text	**kern	**text	**kern	**text
*part4	*part4	*part3	*part3	*part3	*part2	*part2	*part1	*part1
*staff4	*staff4	*staff3	*staff3	*staff3	*staff2	*staff2	*staff1	*staff1
*I"BASSVS	*	*I"TENOR	*	*	*I"ALTVS	*	*I"CANTVS	*
*I'B	*	*I'T	*	*	*I'A	*	*I'C	*
*ICvox	*	*ICvox	*	*	*ICvox	*	*ICvox	*
*Ibass	*	*Itenor	*	*	*Ialto	*	*Isoprn	*
*clefF4	*	*clefC3	*	*	*clefC3	*	*clefC2	*
*k[]	*	*k[]	*	*	*k[]	*	*k[]	*
*G:mix	*	*G:mix	*	*	*G:mix	*	*G:mix	*
*M2/1	*	*M2/1	*	*	*M2/1	*	*M2/1	*
*met(c)	*	*met(c)	*	*	*met(c)	*	*met(c)	*
=1	=1	=1	=1	=1	=1	=1	=1	=1
1G	Al-	1G	Al-	.	1r	.	0r	.
*	*	*lig	*	*	*	*	*	*
2D/	-le-	1A	-le-	.	1d	Al-	.	.
1F	-lu-	.	.	.	.	.	.	.
=2	=2	=2	=2	=2	=2	=2	=2	=2
.	.	1F	.	.	2A/	-le-	1r	.
4E/	.	.	.	.	1c	-lu-	.	.
4D/	.	.	.	.	.	.	.	.
*	*	*Xlig	*	*	*	*	*	*
*	*	*lig	*	*	*	*	*	*
4C/	.	1G	.	.	.	.	1g	Al-
4D/	.	.	.	.	.	.	.	.
2E/	.	.	.	.	4B/	-ia	.	.
.	.	.	.	.	4c/	.	.	.
=3	=3	=3	=3	=3	=3	=3	=3	=3
1D	-ia,	1A	.	.	2.d/	.	2d/	-le-
.	.	.	.	.	.	.	1f	-lu-
.	.	.	.	.	4A/	.	.	.
*	*ij	*Xlig	*	*	*	*	*	*
2r	.	1G	.	.	2B/	.	.	.
2C/	Al-	.	.	.	2c/	.	2e/	.
=4	=4	=4	=4	=4	=4	=4	=4	=4
*	*	*lig	*	*	*	*	*	*
2.D/	.	1F	-lu-	.	1A	ia,	1d	.
4E/	.	.	.	.	.	.	.	.
2.F/	.	1A	.	.	2r	.	2.c/	-ia,
*	*	*	*	*	*	*ij	*	*
.	.	.	.	.	2F/	Al-	.	.
8E/L	.	.	.	.	.	.	4d/	.
8D/J	.	.	.	.	.	.	.	.
*	*	*Xlig	*	*	*	*	*	*
=5	=5	=5	=5	=5	=5	=5	=5	=5
4C/	.	1c	.	.	2.G/	.	4e/	.
4D/	.	.	.	.	.	.	4f/	.
4E/	.	.	.	.	.	.	2.g\	.
*custos:G	*	*	*	*	*	*	*	*
4F\	.	.	.	.	4A/	.	.	.
!LO:LB:g=original	!	!	!	!	!	!	!	!
*clefF3	*	*	*	*	*	*	*	*
2.G/	.	1B	.	.	4B/	.	.	.
*	*	*	*	*	*custos:d	*	*	*
.	.	.	.	.	4c/	.	4f/	.
!	!	!	!	!	!LO:LB:g=original	!	!	!
.	.	.	.	.	1d	.	4d/	.
4F/	.	.	.	.	.	.	4e/	.
=6	=6	=6	=6	=6	=6	=6	=6	=6
*	*	*lig	*	*	*	*	*	*
4D/	.	1A	.	.	.	.	4f/	.
*	*	*	*	*	*	*	*custos:a	*
4E/	.	.	.	.	.	.	4g\	.
!	!	!	!	!	!	!	!LO:LB:g=original	!
4F/	.	.	.	.	4c/	.	2a\	.
4G\	.	.	.	.	4B/	.	.	.
2A\	.	1c	.	.	4c/	.	4A/	.
.	.	.	.	.	4d/	.	4B/	.
4AA/	.	.	.	.	1e	.	4c/	.
4BB/	.	.	.	.	.	.	4d/	.
*	*	*Xlig	*	*	*	*	*	*
=7	=7	=7	=7	=7	=7	=7	=7	=7
*	*	*custos:G	*	*	*	*	*	*
4C/	.	[0Gl	-ia	.	.	.	4e/	.
4D/	.	.	.	.	.	.	4f\	.
2.E/	.	.	.	.	4d\	.	2.g\	.
.	.	.	.	.	4c/	.	.	.
.	.	.	.	.	2B/	.	.	.
4D/	.	.	.	.	.	.	4f\	.
1C	.	.	.	.	1c	.	1e	.
!	!	!LO:LB:g=original	!	!	!	!	!	!
=8	=8	=8	=8	=8	=8	=8	=8	=8
.	.	0G_	.	.	.	.	.	.
2BB/	-le-	.	.	.	2d\	-le-	2d/	.
1C	-lu-	.	.	.	2e\	-lu-	2c/	.
.	.	.	.	.	2c/	.	2e/	.
=9	=9	=9	=9	=9	=9	=9	=9	=9
0Gl	-ia	0G]	.	.	0Bl\	-ia	0dl\	.
*	*Xij	*	*	*	*	*Xij	*	*
=10	=10	=10	=10	=10	=10	=10	=10	=10
*	*	*lig	*	*	*	*	*	*
!	!	!LO:TX:t=P:problem=drugi tekst wersetu dopisany nad linią tekstu, \nwerset na 29 września, wspomnienie Michała Archanioła, patrona Ukrainy! 	!	!	!	!	!	!
1G	Na-	1G	Na-	Con-	1d	Na-	1g	Na-
2F/	-ti-	1c	.	.	4A/	-ti-	2a\	-ti-
.	.	.	.	.	4B/	.	.	.
2E/	.	.	.	.	4c/	.	1g	.
.	.	.	.	.	4d\	.	.	.
*	*	*Xlig	*	*	*	*	*	*
=11	=11	=11	=11	=11	=11	=11	=11	=11
*custos:G	*	*	*	*	*	*	*	*
*	*	*lig	*	*	*	*	*	*
1A	-ui-	1c	-ti-	-cuſ-	2e\	.	.	.
*	*	*	*	*	*custos:d	*	*	*
.	.	.	.	.	2c/	-ui-	2f\	-ui-
!LO:LB:g=original	!	!	!	!	!LO:LB:g=original	!	!	!
1G	-tas	1B	.	.	2d\	-tas	2g\	-tas
*	*	*	*	*	*	*ij	*	*ij
.	.	.	.	.	2B/	na-	2d/	na-
*	*	*	*	*	*	*	*custos:e	*
*	*	*Xlig	*	*	*	*	*	*
!	!	!	!	!	!	!	!LO:LB:g=original	!
=12	=12	=12	=12	=12	=12	=12	=12	=12
*	*	*lig	*	*	*	*	*	*
2r	.	1A	.	.	2.c/	-ti-	2e/	-ti-
2F/	na-	.	.	.	.	.	2f\	.
.	.	.	.	.	4B/	.	.	.
2E/	-ti-	1c	.	.	2G/	.	4g\	.
.	.	.	.	.	.	.	4f\	.
2C/	.	.	.	.	2.A/	.	4e/	.
.	.	.	.	.	.	.	4d/	.
*	*	*Xlig	*	*	*	*	*	*
=13	=13	=13	=13	=13	=13	=13	=13	=13
1E	-ui-	1G	.	.	.	.	2e/	.
.	.	.	.	.	4G/	.	.	.
.	.	.	.	.	1G	.	2c/	-ui-
*	*	*lig	*	*	*	*	*	*
1D	-tas;	1A	-ui-	-sum	.	.	0d	-tas
.	.	.	.	.	2F/	-ui-	.	.
*	*	*	*	*	*	*	*	*Xij
=14	=14	=14	=14	=14	=14	=14	=14	=14
2r	.	1G	.	.	2G/	-tas	.	.
*	*	*	*	*	*	*Xij	*	*
2G/	glo-	.	.	.	2B/	glo-	.	.
*	*	*Xlig	*	*	*	*	*	*
2E/	.	1G	-tas,	eſt	2B/	-ri-	1r	.
2G/	-ri-	.	.	.	2.e\	-o-	.	.
=15	=15	=15	=15	=15	=15	=15	=15	=15
2D/	-o-	1F	glo-	ma-	.	.	1r	.
.	.	.	.	.	4d\	-ſ(ae)	.	.
2F/	-ſe	.	.	.	1d	.	.	.
*	*ij	*lig	*	*	*	*	*	*
1E	glo-	1G	-ri-	.	.	.	2r	.
.	.	.	.	.	2c/	.	1g	glo-
=16	=16	=16	=16	=16	=16	=16	=16	=16
1D	.	1A	.	.	1d	.	.	.
.	.	.	.	.	.	.	2f\	-ri-
*	*	*Xlig	*	*	*	*	*	*
*	*	*lig	*	*	*	*	*	*
4C/	-ri-	1c	-o-	.	1G	.	1e	-o-
4D/	.	.	.	.	.	.	.	.
4E/	.	.	.	.	.	.	.	.
4F/	.	.	.	.	.	.	.	.
=17	=17	=17	=17	=17	=17	=17	=17	=17
1G	-o-	1B	.	.	2r	.	0d	-ſ(ae),
.	.	.	.	.	1g	glo-	.	.
*	*	*Xlig	*	*	*	*	*	*
*	*	*lig	*	*	*	*	*	*
1D	.	1A	.	.	.	.	.	.
.	.	.	.	.	2f\	-ri-	.	.
=18	=18	=18	=18	=18	=18	=18	=18	=18
*custos:C	*	*	*	*	*custos:d	*	*	*
1C	-ſe	1c	.	.	1e	-o-	2r	.
*	*Xij	*	*	*	*	*	*	*ij
.	.	.	.	.	.	.	1c	glo-
*	*	*Xlig	*	*	*	*	*	*
!LO:LB:g=original	!	!	!	!	!LO:LB:g=original	!	!	!
1r	.	1G	.	.	1d	.	.	.
.	.	.	.	.	.	.	2B/	-ri-
=19	=19	=19	=19	=19	=19	=19	=19	=19
*lig	*	*	*	*	*	*	*	*
1C	vir-	1G	-ſe	-re,	1c	-ſ(ae)	1e	-o-
*	*	*lig	*	*	*	*	*	*
1G	.	1G	vir-	et	1B	vir-	2d/	-ſ(ae)
.	.	.	.	.	.	.	1g	.
*Xlig	*	*	*	*	*	*	*	*Xij
=20	=20	=20	=20	=20	=20	=20	=20	=20
2G\	-gi-	1d	.	.	2B/	-gi-	.	.
1B-X	.	.	.	.	1d	-nis	4f\	vir-
.	.	.	.	.	.	.	4e\	.
*	*	*Xlig	*	*	*	*	*	*
*	*	*lig	*	*	*	*	*	*
.	.	1d	-gi-	con-	.	.	4d/	.
*	*	*	*	*	*	*	*custos:f	*
.	.	.	.	.	.	.	4e/	.
!	!	!	!	!	!	!	!LO:LB:g=original	!
4A\	.	.	.	.	4c/	.	2.f\	.
4G\	.	.	.	.	4B/	.	.	.
=21	=21	=21	=21	=21	=21	=21	=21	=21
2.F/	.	1f	.	.	2c/	.	.	.
.	.	.	.	.	.	.	4e\	.
.	.	.	.	.	2.A/	.	1d	.
4G/	.	.	.	.	.	.	.	.
*	*	*Xlig	*	*	*	*	*	*
*	*	*lig	*	*	*	*	*	*
1A	.	1e	.	.	.	.	.	.
.	.	.	.	.	4B/	.	.	.
.	.	.	.	.	2c/	.	2c/	-gi-
=22	=22	=22	=22	=22	=22	=22	=22	=22
1D	-nis	1f	.	.	1A	.	2.d/	-nis
.	.	.	.	.	.	.	4e/	.
*	*	*Xlig	*	*	*	*	*	*
*	*	*custos:d	*	*	*	*	*	*
2r	.	1d	-nis	.	2r	.	2f\	.
1G	vir-	.	.	.	1B	vir-	2g\	.
!	!	!LO:LB:g=original	!	!	!	!	!	!
=23	=23	=23	=23	=23	=23	=23	=23	=23
*	*	*lig	*	*	*	*	*	*
.	.	1d	Ma-	-tre-	.	.	4d/	Ma-
.	.	.	.	.	.	.	4e/	.
2F/	.	.	.	.	2A/	-gi-	4f\	.
.	.	.	.	.	.	.	4g\	.
2.D/	-gi-	1f	.	.	2A/	-nis	2a\	.
.	.	.	.	.	2.d\	.	2.f\	.
4E/	-nis	.	.	.	.	.	.	.
*	*	*Xlig	*	*	*	*	*	*
=24	=24	=24	=24	=24	=24	=24	=24	=24
2F/	.	1d	-ri-	.	.	.	.	.
.	.	.	.	.	4c\	.	4e/	-ri-
2G/	Ma-	.	.	.	4B/	Ma-	1d	.
.	.	.	.	.	4A/	.	.	.
*	*	*lig	*	*	*	*	*	*
1E	-ri-	1e	-(ae)	-mu-	2B/	.	.	.
*	*	*	*	*	*custos:A	*	*	*
.	.	.	.	.	2G/	-ri-	2c/	.
!	!	!	!	!	!LO:LB:g=original	!	!	!
=25	=25	=25	=25	=25	=25	=25	=25	=25
2D/	-(ae)	1f	.	.	1A	-(ae)	1d	-(ae),
1F	Ma-	.	.	.	.	.	.	.
*	*	*Xlig	*	*	*	*	*	*
.	.	1g	,	.	1G	Ma-	2r	.
2E/	.	.	.	.	.	.	2c/	Ma-
=26	=26	=26	=26	=26	=26	=26	=26	=26
*	*	*	*	*	*lig	*	*	*
*	*	*	*	*	*	*	*custos:c	*
2D/	.	0f	.	.	1A	-ri-	0d	-ri-
2C/	.	.	.	.	.	.	.	.
*custos:BB-	*	*	*	*	*	*	*	*
!	!	!	!	!	!	!	!LO:LB:g=original	!
1BB-X	.	.	.	.	1B-X	-­-	.	.
*	*	*	*	*	*Xlig	*	*	*
!LO:LB:g=original	!	!	!	!	!	!	!	!
=27	=27	=27	=27	=27	=27	=27	=27	=27
*	*	*lig	*	*	*	*	*	*
1C	-ri-	1e	.	.	2.G/	-(ae)	2c/	-e
*	*	*	*	*	*	*	*	*ij
.	.	.	.	.	.	.	1g	Ma-
.	.	.	.	.	4A/	.	.	.
1D	-(ae),	1d	.	.	2B/	.	.	.
.	.	.	.	.	2A/	.	2f/	.
*	*	*Xlig	*	*	*	*	*	*
=28	=28	=28	=28	=28	=28	=28	=28	=28
1r	.	1d	.	-it	1B	.	2d/	.
.	.	.	.	.	.	.	2.f/	-ri-
*	*	*lig	*	*	*	*	*	*
1D	ex	1d	ex	ter-	1A	.	.	.
.	.	.	.	.	.	.	4e/	.
.	.	.	.	.	.	.	4d/	.
.	.	.	.	.	.	.	4c/	.
=29	=29	=29	=29	=29	=29	=29	=29	=29
2.D/	ſe-	1f	.	.	2A/	ex	1d	-e
.	.	.	.	.	2.d/	ſe-	.	.
4E/	.	.	.	.	.	.	.	.
*	*	*Xlig	*	*	*	*	*	*Xij
2F/	.	1d	ſe-	-ra	.	.	2r	.
.	.	.	.	.	4c/	.	.	.
!	!	!	!	!	!LO:TX:t=P:problem=znak akcydencji dwie nuty wcześniej	!	!	!
!	!	!	!	!	!LO:N:acc=#	!	!	!
2G\	.	.	.	.	4Bn/	.	2g\	ex
.	.	.	.	.	4A/	.	.	.
=30	=30	=30	=30	=30	=30	=30	=30	=30
*	*	*lig	*	*	*	*	*	*
1E	.	1e	-mi-	v-	2G/	.	2g\	ſe-
.	.	.	.	.	2G/	-mi-	2g\	-mi-
2D/	-mi-	1f	.	.	1A	-ne,	2f\	-ne
*	*	*	*	*	*	*	*	*ij
1F	-ne	.	.	.	.	.	2.d/	ex
*	*	*Xlig	*	*	*	*	*	*
=31	=31	=31	=31	=31	=31	=31	=31	=31
.	.	1g	-ne	.	2r	.	.	.
.	.	.	.	.	.	.	4c/	.
*	*	*	*	*	*	*ij	*	*
2E/	.	.	.	.	2G/	ex	1c	ſe-
1D	.	1f	.	.	2A/	ſe-	.	.
*	*	*	*	*	*custos:G	*	*	*
.	.	.	.	.	2F/	-mi-	2B/	-mi-
!	!	!	!	!	!LO:LB:g=original	!	!	!
=32	=32	=32	=32	=32	=32	=32	=32	=32
1C	.	1e	.	.	2G/	-ne	1c	-ne
*	*	*	*	*	*	*Xij	*	*Xij
.	.	.	.	.	1c	ex	.	.
1r	.	1d	.	.	.	.	2d/	ab-
*	*	*	*	*	*	*	*custos:e	*
.	.	.	.	.	2B/	.	1f	.
!	!	!	!	!	!	!	!LO:LB:g=original	!
=33	=33	=33	=33	=33	=33	=33	=33	=33
*	*	*lig	*	*	*	*	*	*
2r	.	1c	.	-bi	2.c/	ſe-	.	.
2C/	Ab-	.	.	.	.	.	2e/	.
.	.	.	.	.	4B/	-mi-	.	.
2G\	.	1d	.	.	1G	-ne	1d	.
2.B-X\	.	.	.	.	.	.	.	.
*	*	*Xlig	*	*	*	*	*	*
=34	=34	=34	=34	=34	=34	=34	=34	=34
*	*	*lig	*	*	*	*	*	*
.	.	1G	ab-	ar-	1d	.	0g	-ra-
4A\	.	.	.	.	.	.	.	.
4G\	.	.	.	.	.	.	.	.
*custos:G	*	*	*	*	*	*	*	*
4F\	.	.	.	.	.	.	.	.
!LO:LB:g=original	!	!	!	!	!	!	!	!
2.G\	.	1d	.	.	2r	.	.	.
.	.	.	.	.	2G/	A-	.	.
8F/L	.	.	.	.	.	.	.	.
8E/J	.	.	.	.	.	.	.	.
*	*	*Xlig	*	*	*	*	*	*
=35	=35	=35	=35	=35	=35	=35	=35	=35
1D	.	1f	.	.	2A/	-bra-	2f\	-h(ae)
.	.	.	.	.	2B/	.	2d/	.
*	*	*custos:d	*	*	*	*	*	*
*	*	*	*	*	*	*	*	*ij
4C/	.	1e	.	.	1c	.	2.g\	ab-
4D/	.	.	.	.	.	.	.	.
4E/	.	.	.	.	.	.	.	.
4F/	.	.	.	.	.	.	4f\	.
!	!	!LO:LB:g=original	!	!	!	!	!	!
=36	=36	=36	=36	=36	=36	=36	=36	=36
4G/	.	1d	.	.	2B/	.	4d/	.
4F/	.	.	.	.	.	.	4e/	.
4D/	.	.	.	.	1A	.	4f\	.
4E/	.	.	.	.	.	.	4g\	.
2F/	.	[1c	.	.	.	.	2a\	.
2G\	.	.	.	.	2B/	.	1g	.
=37	=37	=37	=37	=37	=37	=37	=37	=37
1A	-ra-	1c]	.	.	2.c\	.	.	.
.	.	.	.	.	.	.	2f\	.
.	.	.	.	.	4d\	.	.	.
1G	-he	1B	.	.	2e\	.	1g	.
.	.	.	.	.	1d	.	.	.
=38	=38	=38	=38	=38	=38	=38	=38	=38
*	*	*lig	*	*	*	*	*	*
1r	.	1A	.	.	.	.	2e/	.
.	.	.	.	.	2c/	.	2f\	.
2r	.	1G	.	.	2.B/	.	2.d/	.
2G/	A-	.	.	.	.	.	.	.
*	*	*	*	*	*custos:d	*	*	*
.	.	.	.	.	4c/	.	4e/	.
!	!	!	!	!	!	!	!	!
*	*	*Xlig	*	*	*	*	*	*
!	!	!	!	!	!LO:LB:g=original	!	!	!
=39	=39	=39	=39	=39	=39	=39	=39	=39
*	*	*lig	*	*	*	*	*	*
2D/	-bra-	1F	-ra-	-chan-	2d\	.	2f\	.
2F/	.	.	.	.	2A/	.	4c/	-ra-
.	.	.	.	.	.	.	4d/	.
4C/	.	1G	.	.	2c/	.	4e/	.
4D/	.	.	.	.	.	.	4f/	.
*	*	*	*	*	*	*	*custos:g	*
4E/	.	.	.	.	4B/	.	1g	.
*custos:G	*	*	*	*	*	*	*	*
4F/	.	.	.	.	4A/	.	.	.
!	!	!	!	!	!	!	!	!
*	*	*Xlig	*	*	*	*	*	*
!LO:LB:g=original	!	!	!	!	!	!	!LO:LB:g=original	!
=40	=40	=40	=40	=40	=40	=40	=40	=40
2G/	.	1G	-he,	-ge-	2B/	.	.	.
2C/	-h(ae).	.	.	.	1c	.	4f/	.
.	.	.	.	.	.	.	4e/	.
!LO:TX:t=P:problem=słowo "orta" pominięte, wpisane później nad linią tekstu	!	!	!	!	!	!	!	!
1G	or-	1G	or-	-lus	.	.	2d/	.
.	.	.	.	.	2B/	.	2g\	.
=41	=41	=41	=41	=41	=41	=41	=41	=41
*	*	*lig	*	*	*	*	*	*
0C	-ta:	1G	-ta	Mi-	1c	-h(ae)	1e	-h(ae)
*	*	*	*	*	*	*	*	*Xij
.	.	1c	.	.	1G	or-	1e	or-
*	*	*Xlig	*	*	*	*	*	*
=42	=42	=42	=42	=42	=42	=42	=42	=42
2r	.	1B	.	.	2G/	-ta	1d	-ta
2G/	de	.	.	.	2B/	de	.	.
*	*	*lig	*	*	*	*	*	*
2F/	.	1c	de	.	2A/	.	2r	.
2E/	tri-	.	.	.	2G/	tri-	2g\	de
=43	=43	=43	=43	=43	=43	=43	=43	=43
2D/	-bu	1d	.	.	2A/	-bu	2f/	tri-
1G	.	.	.	.	2.B/	Iu-	2d/	.
*	*	*Xlig	*	*	*	*	*	*
*	*	*lig	*	*	*	*	*	*
.	.	1d	tri-	-cha-	.	.	1g	-bu
.	.	.	.	.	4c/	.	.	.
4F/	.	.	.	.	1d	.	.	.
4E/	.	.	.	.	.	.	.	.
=44	=44	=44	=44	=44	=44	=44	=44	=44
*	*	*	*	*	*	*	*	*ij
4D/	.	1f	.	.	.	.	2f\	de
4E/	.	.	.	.	.	.	.	.
4F/	.	.	.	.	4c/	.	1d	tri-
4G/	.	.	.	.	4B/	.	.	.
*	*	*Xlig	*	*	*	*	*	*
*	*	*lig	*	*	*	*	*	*
1A	.	1e	.	.	4A/	.	.	.
.	.	.	.	.	4B/	.	.	.
*	*	*	*	*	*custos:A	*	*	*
.	.	.	.	.	2c/	.	2c/	.
!	!	!	!	!	!LO:LB:g=original	!	!	!
*	*	*	*	*	*clefC4	*	*	*
=45	=45	=45	=45	=45	=45	=45	=45	=45
1D	.	1f	.	.	1A	-da	2.d/	-bu
.	.	.	.	.	.	.	4e/	.
*	*	*Xlig	*	*	*	*	*	*Xij
*	*	*lig	*	*	*	*	*	*
2.D/	Iu-	1d	-bu	.	2.A/	Iu-	4f\	.
.	.	.	.	.	.	.	4g\	.
.	.	.	.	.	.	.	1a	Iu-
4E/	.	.	.	.	4G/	.	.	.
=46	=46	=46	=46	=46	=46	=46	=46	=46
2F/	.	1c	.	.	2F/	.	.	.
2E/	.	.	.	.	2G/	.	2g\	.
*	*	*Xlig	*	*	*	*	*	*
*custos:D	*	*	*	*	*	*	*	*
*	*	*lig	*	*	*	*	*	*
*	*	*	*	*	*	*	*custos:e	*
!LO:LB:g=original	!	!	!	!	!	!	!	!
2F/	.	1A	Iu-	.	4A/	.	1f	.
.	.	.	.	.	4D/	.	.	.
2D/	.	.	.	.	2d\	.	.	.
!	!	!	!	!	!	!	!LO:LB:g=original	!
=47	=47	=47	=47	=47	=47	=47	=47	=47
1C	.	1c	.	.	1e	.	2e/	.
.	.	.	.	.	.	.	1g	.
*	*	*Xlig	*	*	*	*	*	*
*	*	*lig	*	*	*	*	*	*
1D	.	1A	.	.	1d	.	.	.
.	.	.	.	.	.	.	2f\	-da
=48	=48	=48	=48	=48	=48	=48	=48	=48
2E/	-da	1G	.	.	2B/	-da	2g\	.
1C	cla-	.	.	.	1c	cla-	2.e/	cla-
*	*	*Xlig	*	*	*	*	*	*
*	*	*custos:G	*	*	*	*	*	*
.	.	1G	-da,	-el	.	.	.	.
.	.	.	.	.	.	.	4d/	.
2D/	.	.	.	.	4B/	.	1d	.
.	.	.	.	.	4A/	.	.	.
=49	=49	=49	=49	=49	=49	=49	=49	=49
1E	-ra	1G	cla-	deſ-	1G	.	.	.
.	.	.	.	.	.	.	2c/	-ra
*	*	*lig	*	*	*	*	*	*
1.D	.	1A	-ra	-cen-	2.F/	.	2.d/	.
.	.	.	.	.	4G/	.	4e/	.
=50	=50	=50	=50	=50	=50	=50	=50	=50
.	.	1F	.	.	1A	.	2f/	.
2C/	.	.	.	.	.	.	2e/	.
*	*	*Xlig	*	*	*	*	*	*
*	*	*lig	*	*	*	*	*	*
1BB	.	1G	.	.	1D	.	1d	.
=51	=51	=51	=51	=51	=51	=51	=51	=51
1AA	.	1A	.	.	2E/	-ra	4c/	.
.	.	.	.	.	.	.	4d/	.
.	.	.	.	.	2A/	ex	4e/	.
.	.	.	.	.	.	.	4c/	.
*	*	*Xlig	*	*	*	*	*	*
*	*	*	*	*	*custos:c	*	*	*
2r	.	1G	.	.	2B/	ſtir-	2d/	.
!	!	!	!	!	!LO:LB:g=original	!	!	!
*	*	*	*	*	*clefC3	*	*	*
2C/	ex	.	.	.	2c/	.	2e/	ex
=52	=52	=52	=52	=52	=52	=52	=52	=52
2.D/	ſtir-	1F	ex	-de-	1.A	-pe	2.f/	ſtir-
4E/	.	.	.	.	.	.	8e/L	.
.	.	.	.	.	.	.	8d/J	.
*	*	*lig	*	*	*	*	*	*
*	*	*	*	*	*	*	*custos:c	*
2.F/	.	1A	ſtir-	.	.	.	2.c/	.
.	.	.	.	.	2.c/	Da-	.	.
!	!	!	!	!	!	!	!LO:LB:g=original	!
8E/L	.	.	.	.	.	.	4d/	.
8D/J	.	.	.	.	.	.	.	.
=53	=53	=53	=53	=53	=53	=53	=53	=53
4C/	.	1c	.	.	.	.	4e/	.
4D/	.	.	.	.	4B/	.	4f/	.
4E/	.	.	.	.	4G/	.	2.g\	.
*custos:G	*	*	*	*	*	*	*	*
4F/	.	.	.	.	4A/	.	.	.
!	!	!	!	!	!	!	!	!
*	*	*Xlig	*	*	*	*	*	*
!LO:LB:g=original	!	!	!	!	!	!	!	!
2.G/	.	1B	.	.	4B/	.	.	.
.	.	.	.	.	4c/	.	4f\	.
.	.	.	.	.	2d/	-uid,	4d/	.
4F/	.	.	.	.	.	.	4e/	.
=54	=54	=54	=54	=54	=54	=54	=54	=54
*	*	*lig	*	*	*	*	*	*
4D/	.	1A	.	.	2.d/	Da-	4f/	.
4E/	.	.	.	.	.	.	4g\	.
4F\	.	.	.	.	.	.	1a	-pe
4G\	.	.	.	.	4c/	.	.	.
4A\	.	1c	.	.	2.A/	.	.	.
4B\	.	.	.	.	.	.	.	.
1c	.	.	.	.	.	.	4g\	.
.	.	.	.	.	4B/	.	4f\	.
*	*	*Xlig	*	*	*	*	*	*
=55	=55	=55	=55	=55	=55	=55	=55	=55
.	.	1G	-pe	-bat	4c/	.	4e/	.
.	.	.	.	.	4d/	.	4d/	.
2B\	.	.	.	.	1e	.	1g	.
*	*	*lig	*	*	*	*	*	*
1A	-pe	1c	Da-	de	.	.	.	.
.	.	.	.	.	4d/	.	2f\	da-
.	.	.	.	.	4c/	.	.	.
=56	=56	=56	=56	=56	=56	=56	=56	=56
2.G\	Da-	1d	.	.	4B/	.	1g	-uid,
.	.	.	.	.	4c/	.	.	.
.	.	.	.	.	1d	.	.	.
4F/	.	.	.	.	.	.	.	.
*	*	*	*	*	*custos:c	*	*	*
*	*	*Xlig	*	*	*	*	*	*
*	*	*lig	*	*	*	*	*	*
4D/	.	1f	.	c(ae)-	.	.	1r	.
4E/	.	.	.	.	.	.	.	.
1F	.	.	.	.	4c/	.	.	.
!	!	!	!	!	!LO:LB:g=original	!	!	!
.	.	.	.	.	4B/	.	.	.
=57	=57	=57	=57	=57	=57	=57	=57	=57
.	.	1c	.	.	4A/	.	2r	.
.	.	.	.	.	4G/	.	.	.
2E/	.	.	.	.	1c	.	2e/	/ex
*	*	*Xlig	*	*	*	*	*	*
*	*	*lig	*	*	*	*	*	*
*	*	*	*	*	*	*	*custos:e	*
1D	.	1d	.	.	.	.	1f	ſtir-
.	.	.	.	.	2B/	.	.	.
!	!	!	!	!	!	!	!LO:LB:g=original	!
=58	=58	=58	=58	=58	=58	=58	=58	=58
2C/	-uid,	1G	.	.	1c	-uid,	2e/	-pe
2E/	ex	.	.	.	.	.	1g	da-
*	*	*Xlig	*	*	*	*ij	*	*
1D	ſtir-	1A	.	.	1d	.	.	.
.	.	.	.	.	.	.	2f\	.
=59	=59	=59	=59	=59	=59	=59	=59	=59
2E/	-pe	1G	.	.	1B	ex	2e/	.
*custos:A	*	*	*	*	*	*	*	*
2G\	Da-	.	.	.	.	.	2d/	.
!LO:LB:g=original	!	!	!	!	!	!	!	!
*	*	*lig	*	*	*	*	*	*
2A\	.	1F	.	.	2c/	ſtir-	1f	.
2.c\	.	.	.	.	2A/	-pe	.	.
=60	=60	=60	=60	=60	=60	=60	=60	=60
.	.	1A	.	.	2.c/	Da-	1e	-uid/
4B\	.	.	.	.	.	.	.	.
4A\	.	.	.	.	.	.	.	.
4G\	.	.	.	.	4B/	.	.	.
*	*	*Xlig	*	*	*	*	*	*
2F/	.	1c	.	.	2A/	.	2r	.
2E/	.	.	.	.	2G/	.	2e/	ex
=61	=61	=61	=61	=61	=61	=61	=61	=61
*	*	*lig	*	*	*	*	*	*
2D/	.	1A	.	.	2F/	-uid	1f	ſtir-
*	*	*	*	*	*	*Xij	*	*
2F/	.	.	.	.	2.A/	Da-	.	.
*	*	*custos:A	*	*	*	*	*	*
1G	.	1B	.	.	.	.	2d/	-pe
.	.	.	.	.	4G/	.	.	.
.	.	.	.	.	1G	.	2.d/	Da-
!	!	!LO:LB:g=original	!	!	!	!	!	!
*	*	*Xlig	*	*	*	*	*	*
=62	=62	=62	=62	=62	=62	=62	=62	=62
*	*	*lig	*	*	*	*	*	*
!	!	!LO:TX:t=P:problem=końcówka zanotowana pod spodem, na końcu drugiego systemu a nie na początku	!	!	!	!	!	!
1D	.	1A	-uid	-lo	.	.	.	.
.	.	.	.	.	.	.	4e/	.
.	.	.	.	.	2F/	.	2f\	.
*lig	*	*	*	*	*lig	*	*	*
1E	.	[1Gl	.	.	1G	.	0e	.
*	*	*Xlig	*	*	*	*	*	*
=63	=63	=63	=63	=63	=63	=63	=63	=63
1C	.	0G]	.	.	1c	.	.	.
*Xlig	*	*	*	*	*Xlig	*	*	*
*custos:G	*	*	*	*	*custos:d	*	*custos:g	*
!LO:TX:t=P:problem=kustosz dotyczy powrotu na początek, na Alleluja	!	!	!	!	!LO:TX:t=P:problem=kustosz dotyczy powrotu na początek, na Alleluja	!	!LO:TX:t=P:problem=kustosz dotyczy powrotu na początek, na Alleluja	!
1Gl	-uid	.	.	.	1Bl\	-uid;	1dl\	-uid;
==	==	==	==	==	==	==	==	==
*-	*-	*-	*-	*-	*-	*-	*-	*-
!!!system-decoration: [(s1,s2,s3,s4)]
!!!RDF**kern: l = terminal long
!!!ENC: Mateusz Solarz
!!!END: 2022-02-28
!!!AIN: 1 alto 1 bass 1 soprn 1 tenor
!!!ENC: Jan Barakat
!!!END: 2022-03-12
